suite-common/icons/assets/icons/shieldCross.svg

<svg width="16" height="16" viewBox="0 0 16 16" fill="none" xmlns="http://www.w3.org/2000/svg">
    <path d="M3.25 3.75V7.169C3.25 11.749 7.01 13.366 8 13.711C8.99 13.366 12.75 11.75 12.75 7.169V3.75H3.25ZM2.116 2.616C2.2321 2.49993 2.36992 2.40787 2.5216 2.34507C2.67327 2.28228 2.83584 2.24997 3 2.25H13C13.3315 2.25 13.6495 2.3817 13.8839 2.61612C14.1183 2.85054 14.25 3.16848 14.25 3.5V7.169C14.25 12.934 9.354 14.842 8.402 15.159C8.14197 15.2515 7.85803 15.2515 7.598 15.159C6.646 14.842 1.75 12.934 1.75 7.169V3.5C1.75 3.168 1.882 2.85 2.116 2.616Z" fill="black"/>
    <path d="M6.05528 6.05528C6.1959 5.91483 6.38653 5.83594 6.58528 5.83594C6.78403 5.83594 6.97465 5.91483 7.11528 6.05528L9.94428 8.88428C10.0159 8.9535 10.073 9.03628 10.1122 9.1278C10.1515 9.21933 10.1721 9.31775 10.173 9.41733C10.1738 9.51692 10.1548 9.61567 10.117 9.70782C10.0792 9.79998 10.0235 9.88369 9.95307 9.95407C9.88261 10.0245 9.79885 10.0801 9.70666 10.1178C9.61447 10.1554 9.5157 10.1744 9.41612 10.1735C9.31653 10.1726 9.21813 10.1518 9.12664 10.1125C9.03516 10.0731 8.95243 10.0159 8.88328 9.94428L6.05528 7.11728C5.91483 6.97665 5.83594 6.78603 5.83594 6.58728C5.83594 6.38853 5.91483 6.1979 6.05528 6.05728V6.05528Z" fill="black"/>
    <path d="M9.94339 6.05528C10.0131 6.12493 10.0684 6.20763 10.1061 6.29865C10.1438 6.38968 10.1632 6.48725 10.1632 6.58578C10.1632 6.68431 10.1438 6.78188 10.1061 6.8729C10.0684 6.96393 10.0131 7.04663 9.94339 7.11628L7.11539 9.94528C7.04617 10.0169 6.96338 10.074 6.87186 10.1132C6.78034 10.1525 6.68192 10.1731 6.58233 10.174C6.48275 10.1748 6.384 10.1558 6.29184 10.118C6.19969 10.0802 6.11598 10.0245 6.04559 9.95407C5.97521 9.88361 5.91956 9.79985 5.88189 9.70766C5.84422 9.61547 5.82529 9.5167 5.8262 9.41712C5.82712 9.31753 5.84785 9.21913 5.8872 9.12764C5.92655 9.03616 5.98372 8.95343 6.05539 8.88428L8.88339 6.05528C9.02401 5.91483 9.21464 5.83594 9.41339 5.83594C9.61214 5.83594 9.80276 5.91483 9.94339 6.05528Z" fill="black"/>
</svg>

<svg xmlns="http://www.w3.org/2000/svg" fill="none" viewBox="0 0 16 16">
  <path fill="#000" d="M3.25 3.75v3.419c0 4.58 3.76 6.197 4.75 6.542.99-.345 4.75-1.961 4.75-6.542V3.75zM2.116 2.616A1.25 1.25 0 0 1 3 2.25h10a1.25 1.25 0 0 1 1.25 1.25v3.669c0 5.765-4.896 7.673-5.848 7.99a1.2 1.2 0 0 1-.804 0c-.952-.317-5.848-2.225-5.848-7.99V3.5c0-.332.132-.65.366-.884"/>
  <path fill="#000" d="M6.055 6.055a.75.75 0 0 1 1.06 0l2.83 2.83a.749.749 0 0 1-.529 1.289.75.75 0 0 1-.533-.23L6.055 7.117a.75.75 0 0 1 0-1.06z"/>
  <path fill="#000" d="M9.943 6.055a.75.75 0 0 1 0 1.061l-2.828 2.83a.749.749 0 0 1-1.289-.529.75.75 0 0 1 .23-.533l2.827-2.829a.75.75 0 0 1 1.06 0"/>
</svg>
